X: 30
T:Rigadoon. TBe.030
M:6/8
L:1/8
Q:100
S:Thomas Bennet MS,1718, VWML
R:rigadoon
O:England
N:Illegible comment in pencil under this tune.
H:1718
Z:vmp.C. Graebe..
K:G major
d | g2dg2d | B2 A/B/ G2 d | e2d c2B | A3-A3 ||!
d | d2G G2e | e2A A2 f | f2B B2g | g2 G G2d |!
dcB A2 G | G3-G2 d |dBG ecA | fdB g2d |!
dBG ecA | fdB gfe | dcB A2 G | G3-G3 ||
